svg/l/XK.svg

<svg fill="none" height="24" viewBox="0 0 32 24" width="32" xmlns="http://www.w3.org/2000/svg" xmlns:xlink="http://www.w3.org/1999/xlink"><mask id="a" height="24" maskUnits="userSpaceOnUse" width="32" x="0" y="0"><path d="m0 0h32v24h-32z" fill="#fff"/></mask><g mask="url(#a)"><path clip-rule="evenodd" d="m0 0h32v24h-32z" fill="#2e42a5" fill-rule="evenodd"/><path d="m14.4122 19.917c.1223-.1242.3229 0 .3229 0s.5795-.4145.5795-.4824c0-.0678-.2794-.8894-.0441-1.174.2352-.2847 2.1443-1.2828 2.3218-1.2263.1776.0566.6196.9315.7635.9315.144 0 .5608.0194.5608-.119s-.1367-.7056.2993-.976c.4359-.2704.7491-.5773.9894-.3245.2404.2528.3444.0906.3444.0906s.0705-.3542-.0615-.4591c-.132-.1048-.4045-.337-.1312-.4829s.4975-.1057.4975-.1057l.1858-.2867-.1858-.3635.9019-1.0351-.1312-.2414s.2036-.1334.2375-.3451.1639-.3542-.1063-.474-.3621.073-.4537.1198c-.0915.0467-.1257.1761-.1257.1761l-.1367-.2959s-.8761-.3431-1.1862-.3431-.5576.0051-.4155-.4326c.1422-.4377.3158-.5386.2187-.6691s-.1421.1305-.4414-.0778c-.2993-.2084-.8979-.2743-.8979-.6114s-.6742-1.51929-.9402-1.51929-.3225.10061-.3225.10061-1.3448-.33744-1.3448-.4578.2132-.38233.2132-.38233-.2339-.52592-.4537-.438c-.2198.08793-.6316.5-.8447.5s-.5711.02855-.5711.02855.7842.77941.5711 1.12118c-.2131.34178-.3839.58928-.3839.58928l-.2665-.0126-.5658.444.2447.5131s-.3926.449-.5481.449c-.1554 0-.3779-.1333-.6303 0-.2525.1333-.5116.1009-.5116.1009s-.3682.2366-.3682.3217-.0874.2742-.0874.2742h-.3872l-.5039-.2239s-.69133.2666-.6082.5559c.0832.2893.9075.5144.9075.5144l-.2364.3421s.1107.6741.3417.7936c.2309.1195.66.8565.66.8565l-.1735.2098s.2993.1197.2993.3612.358.2968.358.2968l.3099-.0762.04.1517.2473.0855.0779.1169s1.2382 1.2728 1.1343 1.5206.1777.7622.1777.7622l.1735.6019-.3512.3435s.3151.4867.4373.3626z" fill="#e8ab02"/><path clip-rule="evenodd" d="m18.3169 5.48033-.9827.55748.2807-1.13302-.9414-.8326h1.2296l.4123-1.07219.4836 1.07219h1.0481l-.8235.8326.3959 1.13302zm3.26 1.37518.9827-.55748 1.1026.55748-.396-1.13302.8235-.83259h-1.0481l-.4835-1.0722-.4124 1.0722h-1.2295l.9413.83259zm3.8502 1.09437.9827-.55748 1.1026.55748-.396-1.13302.8236-.8326h-1.0482l-.4835-1.07219-.4124 1.07219h-1.2295l.9414.8326zm-20.26642 0 .98268-.55748 1.10263.55748-.39598-1.13302.82353-.8326h-1.04812l-.48354-1.07219-.41237 1.07219h-1.22951l.94134.8326zm4.83292-1.65185-.98269.55748.28066-1.13302-.94133-.83259h1.22951l.41237-1.0722.48358 1.0722h1.0481l-.8236.83259.396 1.13302zm3.2551-.26022.9827-.55748 1.1026.55748-.396-1.13302.8235-.8326h-1.0481l-.4835-1.07219-.4124 1.07219h-1.2295l.9413.8326z" fill="#f7fcff" fill-rule="evenodd"/></g></svg>

<svg width="32" height="24" viewBox="0 0 32 24" fill="none" xmlns="http://www.w3.org/2000/svg">
<mask id="mask0" mask-type="alpha" maskUnits="userSpaceOnUse" x="0" y="0" width="32" height="24">
<rect width="32" height="24" fill="white"/>
</mask>
<g mask="url(#mask0)">
<path fill-rule="evenodd" clip-rule="evenodd" d="M0 0H32V24H0V0Z" fill="#2E42A5"/>
<path d="M14.4122 19.917C14.5345 19.7928 14.7351 19.917 14.7351 19.917C14.7351 19.917 15.3146 19.5025 15.3146 19.4346C15.3146 19.3668 15.0352 18.5452 15.2705 18.2606C15.5057 17.9759 17.4148 16.9778 17.5923 17.0343C17.7699 17.0909 18.2119 17.9658 18.3558 17.9658C18.4998 17.9658 18.9166 17.9852 18.9166 17.8468C18.9166 17.7084 18.7799 17.1412 19.2159 16.8708C19.6518 16.6004 19.965 16.2935 20.2053 16.5463C20.4457 16.7991 20.5497 16.6369 20.5497 16.6369C20.5497 16.6369 20.6202 16.2827 20.4882 16.1778C20.3562 16.073 20.0837 15.8408 20.357 15.6949C20.6303 15.549 20.8545 15.5892 20.8545 15.5892L21.0403 15.3025L20.8545 14.939L21.7564 13.9039L21.6252 13.6625C21.6252 13.6625 21.8288 13.5291 21.8627 13.3174C21.8966 13.1057 22.0266 12.9632 21.7564 12.8434C21.4862 12.7236 21.3943 12.9164 21.3027 12.9632C21.2112 13.0099 21.177 13.1393 21.177 13.1393L21.0403 12.8434C21.0403 12.8434 20.1642 12.5003 19.8541 12.5003C19.544 12.5003 19.2965 12.5054 19.4386 12.0677C19.5808 11.63 19.7544 11.5291 19.6573 11.3986C19.5602 11.2681 19.5152 11.5291 19.2159 11.3208C18.9166 11.1124 18.318 11.0465 18.318 10.7094C18.318 10.3723 17.6438 9.19011 17.3778 9.19011C17.1118 9.19011 17.0553 9.29072 17.0553 9.29072C17.0553 9.29072 15.7105 8.95328 15.7105 8.83292C15.7105 8.71256 15.9237 8.45059 15.9237 8.45059C15.9237 8.45059 15.6898 7.92467 15.47 8.01259C15.2502 8.10052 14.8384 8.51259 14.6253 8.51259C14.4122 8.51259 14.0542 8.54114 14.0542 8.54114C14.0542 8.54114 14.8384 9.32055 14.6253 9.66232C14.4122 10.0041 14.2414 10.2516 14.2414 10.2516L13.9749 10.239L13.4091 10.683L13.6538 11.1961C13.6538 11.1961 13.2612 11.6451 13.1057 11.6451C12.9503 11.6451 12.7278 11.5118 12.4754 11.6451C12.2229 11.7784 11.9638 11.746 11.9638 11.746C11.9638 11.746 11.5956 11.9826 11.5956 12.0677C11.5956 12.1528 11.5082 12.3419 11.5082 12.3419H11.121L10.6171 12.118C10.6171 12.118 9.92577 12.3846 10.0089 12.6739C10.0921 12.9632 10.9164 13.1883 10.9164 13.1883L10.68 13.5304C10.68 13.5304 10.7907 14.2045 11.0217 14.324C11.2526 14.4435 11.6817 15.1805 11.6817 15.1805L11.5082 15.3903C11.5082 15.3903 11.8075 15.51 11.8075 15.7515C11.8075 15.993 12.1655 16.0483 12.1655 16.0483L12.4754 15.9721L12.5154 16.1238L12.7627 16.2093L12.8406 16.3262C12.8406 16.3262 14.0788 17.599 13.9749 17.8468C13.871 18.0946 14.1526 18.609 14.1526 18.609L14.3261 19.2109L13.9749 19.5544C13.9749 19.5544 14.29 20.0411 14.4122 19.917Z" fill="#E8AB02"/>
<path fill-rule="evenodd" clip-rule="evenodd" d="M18.3169 5.48033L17.3342 6.03781L17.6149 4.90479L16.6735 4.07219H17.9031L18.3154 3L18.799 4.07219H19.8471L19.0236 4.90479L19.4195 6.03781L18.3169 5.48033ZM21.5769 6.85551L22.5596 6.29803L23.6622 6.85551L23.2662 5.72249L24.0897 4.8899H23.0416L22.5581 3.8177L22.1457 4.8899H20.9162L21.8575 5.72249L21.5769 6.85551ZM25.4271 7.94988L26.4098 7.3924L27.5124 7.94988L27.1164 6.81686L27.94 5.98426H26.8918L26.4083 4.91207L25.9959 5.98426H24.7664L25.7078 6.81686L25.4271 7.94988ZM5.16068 7.94988L6.14336 7.3924L7.24599 7.94988L6.85001 6.81686L7.67354 5.98426H6.62542L6.14188 4.91207L5.72951 5.98426H4.5L5.44134 6.81686L5.16068 7.94988ZM9.9936 6.29803L9.01091 6.85551L9.29157 5.72249L8.35024 4.8899H9.57975L9.99212 3.8177L10.4757 4.8899H11.5238L10.7002 5.72249L11.0962 6.85551L9.9936 6.29803ZM13.2487 6.03781L14.2314 5.48033L15.334 6.03781L14.938 4.90479L15.7615 4.07219H14.7134L14.2299 3L13.8175 4.07219H12.588L13.5293 4.90479L13.2487 6.03781Z" fill="#F7FCFF"/>
</g>
</svg>
